!!!!SEGMENT: pl-kk--kk-i-134--004_gabrieli-andrea--hodie-christus.krn
!!!cenid: 16xx:745
!!!COM: Gabrieli, Andrea
!!!COM-rismID: pe30001185
!!!CDT: 1532/1533-1585/08/30
!!!CNT: Italian
!!!OTL: Hodie Christus
!!!PDT:
!!!AGN: Sacred
!!!SMS-siglum: PL-Kk
!!!SMS-shelfmark: Kk.I.134
!!!SMS-shelfwork: 004 W
!!!SMS-variant:
!!!SMS-altvar:
!!!NIFC-rismSourceID: 1001143945
!!!NIFC-islandoraID: pl-kk:3563
!!!URL-pdf-islandora: https://repozytorium.nifc.pl/islandora/object/pl-kk%3A3563/datastream/PDF/view
!!!URL-scan: https://polish.musicsources.pl/pl/lokalizacje/galeria/rekopisy/5764 @EN{Scan on Polish Music Sources Website} @PL{Skany w portalu Dziedzictwo Muzyki Polskiej w otwartym dostępie}
!!!ONB-nifc: UWAGA: utwory w zbiorze: 1. Benedicte dominum, 2. Gaudent in caelis, 3. Domine non est exaltatum – Domine… (1), 3. Domine non est exaltatum – Sicut ablactus est (2), 4. Hodie Christus
!!!AIN: 1 empty
!!!key:
**kern	**text
*Iempty	*
*I"Baſso.	*
*I'B	*
*clefF4	*
*k[b-]	*
*d:	*
*M2/1	*
*met(c|)	*
=1-	=1-
!LO:TX:a:t=a. 7. voc. Fol. 6.	!
00r	.
=2-	=2-
.	.
=3-	=3-
00r	.
=4-	=4-
.	.
=5-	=5-
1r	.
1A\.	Ho-
=6-	=6-
*2\right	*
2F\	-di-
2F\	-e
2.B-\	Chri-
=7-	=7-
4A\	.
4G\	.
4F\	.
2.E\	.
4F\	.
=8-	=8-
2G\	.
2F\	-stus
2E\	na-
2E\	-t(us)
=9-	=9-
!LO:TX:t=P:problem=kreska pseudotaktowa	!
1F\	e(st)
2r	.
1A\	ho-
=10-	=10-
2F\	-di-
2F\	-e
2A\	Sal-
=11-	=11-
2.D\	-va-
4E\	.
1F\	.
=12-	=12-
!LO:TX:t=P:global:problem=oddechy jako rozdzielacze slow	!
1.D\,	-tor,
2F\	ap-
=13-	=13-
2G\	-pa-
!LO:TX:t=P:problem=kreska pseudotaktowa	!
2GG/	-ru-
2D/	-it,
1D\	ho-
=14-	=14-
2AA/	-di-
2BB-/	-e
2E\	Sal-
=15-	=15-
1C/	-va-
2AA/	-tor
!LO:TX:t=P:problem=kreska pseudotaktowa	!
2AA/	ap-
=16-	=16-
2D/	-pa-
2AA/	-ru-
2AA/	-it
1A\	ho-
=17-	=17-
2D\	-di-
2F\	-e
!LO:TX:t=P:problem=kreska pseudotaktowa	!
2F\	in
=18-	=18-
2FF/	ter-
2FF,/	-ra,
2GG/	ca-
2AA,/	-nunt,
=19-	=19-
2BB-/	an-
2FF/	-ge-
!LO:TX:t=P:problem=kreska pseudotaktowa	!
1BB-/	-li
=20-	=20-
2r	.
2D/	in
2D/	ter-
2D/	-ra
=21-	=21-
2BB-/	ca-
2AA/	-nunt
2.D/	an-
4D/	-ge-
=22-	=22-
!LO:TX:t=P:problem=poprawka głównego skryptora	!
[>2BB-/	-li
!LO:TX:t=P:problem=kreska pseudotaktowa	!
2BB-/]	.
00r	.
=23-	=23-
.	.
=24-	=24-
0r	.
=25-	=25-
!LO:TX:t=P:problem=poprawka głównego skryptora	!
[>2AA/	in
2AA/]	.
=26-	=26-
2.AA/	ter-
4AA/	-ra
2BB-/	ca-
2C/	-nunt
=27-	=27-
2D/	an-
2AA/	-ge-
!LO:TX:t=P:problem=kreska pseudotaktowa	!
1D\	-li
=28-	=28-
0r	.
=29-	=29-
2r	.
4r	.
!LO:TX:t=P:problem=kreska pseudotaktowa	!
4AA/	lae-
2D\	-ran-
!LO:TX:t=P:problem=kreska pseudotaktowa	!
2E\	-tur
=30-	=30-
4r	.
4BB-/	Lae-
!LO:TX:t=P:problem=kreska pseudotaktowa	!
2D/	-tan-
4E\	-tur
4AA/	ar-
4D/	-chan-
!LO:TX:t=P:problem=kreska pseudotaktowa	!
4GG/	-ge-
=31-	=31-
1AA/	-li
00r	.
=32-	=32-
.	.
=33-	=33-
0r	.
=34-	=34-
1.D\	ho-
=35-	=35-
2C/	-di-
2D/	-e
2BB-/	w-
=36-	=36-
2D/	-xul-
4F\	-tant
2F\	ju-
8E\	.
8D\	.
2E\	-sti
=37-	=37-
!LO:TX:t=P:problem=kreska pseudotaktowa	!
1F\	.
2r	.
1BB-/	di-
=38-	=38-
1B-\	-cen-
1E\	-tes
=39-	=39-
2E\	di-
1E\	-cen-
=40-	=40-
!LO:TX:t=P:problem=kreska pseudotaktowa	!
0AA/	tes
=41-	=41-
2r	.
2.D/	Glo-
4D/	-ri-
2D/	-a
=42-	=42-
2C/	in
2D/	ex-
2E/	-cel-
2G\	-sis
=43-	=43-
1E\	De-
!LO:TX:t=P:problem=fragment wykreślony	!
!LO:TX:t=P:problem=kreska pseudotaktowa	!
1D\	-o
=44-	=44-
2r	.
*	*ij
2.F\	Glo-
4F\	-ri-
2F\	-a
=45-	=45-
2E\	in
1D\	ex-
2.BB-/	-cel-
=46-	=46-
4AA/	.
2GG/	sis
1AA/	De-
=47-	=47-
1D\	.
0E\	-o
=48-	=48-
!LO:TX:a:t=3	!
0r	.
=49-	=49-
1r	.
=50-	=50-
2.E\	Glo-
4E\	-ri-
2E\	-a
2D\	in
=51-	=51-
1BB-/	ex-
2BB-/	-cel-
2E\	-sis
=52-	=52-
1AA/	De-
1AA/	-o
*	*Xij
=53||	=53||
*M3/1	*
00.r.	.
.	.
.	.
=54-	=54-
.	.
.	.
.	.
=55-	=55-
1A\	Al-
1F\	-le-
1D\	-lu-
=56	=56
0.A\	-ia
=57	=57
*	*ij
1E\	al-
1.F\	-le-
2D/	-lu-
=58	=58
0E\	-ia
*	*Xij
1r	.
=59	=59
!LO:TX:t=P:problem=skreślona pauza	!
1r	.
1r	.
1E\	al-
=60	=60
1C/	-le-
1AA/	-lu-
1D\	-ia
=61	=61
2rGG	.
*	*ij
1AA/	al-
1A\	-le-
2E\	.
=62	=62
0.F\	-lu-
=63	=63
1F\	-ia
*	*Xij
1r	.
1r	.
=64	=64
1A\	Al-
1F\	-le-
1D\	-lu-
=65	=65
0.A\	-ia
=66	=66
*	*ij
1E\	Al-
1.F\	-le-
2D/	-lu-
=67	=67
0E\	-ia
1r	.
=68	=68
1r	.
1r	.
1E\	Al-
=69	=69
1C/	-le-
1AA/	-lu-
1D\	-ia
*	*Xij
=70	=70
2rBB	.
1AA/	al-
1A\	-le-
2E\	-lu-
=71	=71
*M2/2	*
*met(c|)	*
1F\	-ia
=72-	=72-
*	*ij
2A\	al-
2F\	-le-
=73-	=73-
2D\	-lu-
1F\	-ia
=74-	=74-
.	.
1D\	al-
=75-	=75-
.	.
1BB-/	-le-
=76-	=76-
.	.
2GG/	lu-
=77-	=77-
00AA/;	-ia
*	*Xij
==	==
*-	*-
!!!RDF**kern: > = above
!!!RDF**kern: < = below
!!!EED: Andrzej Borzym
!!!EEV: 2021-02-18
!!!ENC: Krzysztof Stępień
!!!END: 2021-02-11
